!!!!SEGMENT: pl-kk--kk-i-204--001_anonim--justus-germinabit.krn
!!!cenid: 16xx:762
!!!COM: Anonim
!!!COM-rismID: pe30004985
!!!CDT:
!!!CNT:
!!!OTL: Justus germinabit
!!!PDT:
!!!AGN: Sacred
!!!YEC: Copyright 2022 Narodowy Instytut Fryderyka Chopina (https://polishscores.org)
!!!YEM: License CC-BY-4.0 (https://creativecommons.org/licenses/by/4.0)
!!!SMS-siglum: PL-Kk
!!!SMS-shelfmark: Kk.I.204
!!!SMS-shelfwork: 001 W
!!!SMS-variant:
!!!SMS-altvar:
!!!NIFC-rismSourceID: 1001143750
!!!NIFC-rismChildID: 1001143751
!!!NIFC-islandoraID: pl-kk:4170
!!!URL-pdf-islandora: https://repozytorium.nifc.pl/islandora/object/pl-kk%3A4170/datastream/PDF/view
!!!URL-scan: https://polish.musicsources.pl/pl/lokalizacje/galeria/rekopisy/5831 @EN{Scan on Polish Music Sources Website} @PL{Skany w portalu Dziedzictwo Muzyki Polskiej w otwartym dostępie}
!!!IIIF:
!!!ONB-nifc: UWAGA: utwory w zbiorze: 1. Justus germinabit, 2. Justus ut palma florebit
!!!AIN: 1 alto 2 empty 1 tenor 1 vox
!!!key:
**kern	**text	**kern	**text	**kern	**text	**kern	**text	**kern	**text
*part5	*	*part4	*	*part3	*	*part2	*	*part1	*
*staff5	*	*staff4	*	*staff3	*	*staff2	*	*staff1	*
*Iempty	*	*Iempty	*	*Itenor	*	*Ialto	*	*Ivox	*
*I"Baſso Ripieno.	*	*I"Baſso.	*	*I"Tenore in Alto.	*	*I"Alto	*	*I"Canto.	*
*I'B rip	*	*I'B	*	*I'T	*	*I'A	*	*I'C	*
*clefF4	*	*clefF4	*	*clefC3	*	*clefC3	*	*clefC1	*
*k[b-]	*	*k[b-]	*	*k[b-]	*	*k[b-]	*	*k[b-]	*
*F:	*	*F:	*	*F:	*	*F:	*	*F:	*
*M2/2	*	*M2/2	*	*M2/2	*	*M2/2	*	*M2/2	*
*met(c|)	*	*met(c|)	*	*met(c|)	*	*met(c|)	*	*met(c|)	*
=1	=1	=1	=1	=1	=1	=1	=1	=1	=1
!LO:TX:t=P:problem=znaki [BB-B-]	!	!LO:TX:t=P:problem=znaki [BB-B-]	!	!LO:TX:t=P:global:problem=oddech jako rozdzielacz słów	!	!LO:TX:t=P:global:problem=oddech jako rozdzielacz słów	!	!LO:TX:t=P:global:problem=oddech jako rozdzielacz słów	!
2r	.	2r	.	2r	.	2r	.	2r	.
*2\right	*	*2\right	*	*	*	*2\right	*	*2\right	*
[<2F\	Ju-	[<2F\	Ju-	(2A/	Ju-	1f\	Jus-	(2cc\	Ju-
=2	=2	=2	=2	=2	=2	=2-	=2	=2	=2
2F\]	.	2F\]	.	2B-/)	.	.	.	2dd\)	.
2F\	-stus	2F\	-stus	2A/	-stus	2f\	-tus	2cc\	-stus
=3	=3	=3	=3	=3	=3	=3	=3	=3	=3
2B-\	ger-	2B-\	ger-	2B-/	ger-	2f\	ger-	2dd\	ger-
2A\	-mi-	2A\	-mi-	2c/	-mi-	2f\	-mi-	2cc\	-mi-
=4	=4	=4	=4	=4	=4	=4	=4	=4	=4
*	*	*	*	*2\right	*	*	*	*	*
1G\	-na-	1G\	-na-	(2d\	-na-	(2f\	-na-	(2b-\	-na-
.	.	.	.	2B-/)	.	2e\)	.	2g/)	.
=5	=5	=5	=5	=5	=5	=5	=5	=5	=5
!LO:TX:t=P:global:problem=oddech jako rozdzielacz słów	!	!LO:TX:t=P:global:problem=oddech jako rozdzielacz słów	!	!LO:TX:t=P:global:problem=oddech jako rozdzielacz słów	!	!LO:TX:t=P:global:problem=oddech jako rozdzielacz słów	!	!LO:TX:t=P:global:problem=oddech jako rozdzielacz słów	!
2F,<\	-bit	2F,<\	-bit	2c,<\	-bit	2f,<\	-bit	2a,<\	-bit
1F\	si-	1F\	si-	2c\	si-	2c/	si-	2a\	si-
=6-	=6	=6-	=6	=6	=6	=6	=6	=6	=6
.	.	.	.	(2Bn/	-cut	(2d\	-cut	2g/	.
2En\	-cut	2En\	-cut	2c/)	.	2e,<\)	.	2g/	-cut
=7	=7	=7	=7	=7	=7	=7	=7	=7	=7
2.D/	Li-	2.D/	Li-	2c/	Li-	2.f\	Li-	2a\	li-
.	.	.	.	2Bn/	-li-	.	.	2bn\	-li-
4D/	-li-	4D/	-li-	.	.	4f\	-li-	.	.
=8	=8	=8	=8	=8	=8	=8	=8	=8	=8
1C/	-um,	1C/	-um,	2c,<\	-um	2e,<\	-um	2cc,<\	-um
.	.	.	.	2c\	si-	2e\	si-	(2cc\	si-
=9	=9	=9	=9	=9	=9	=9	=9	=9	=9
0r	.	0r	.	2.d\	.	(2.f\	-cut	2a\)	.
.	.	.	.	.	.	.	.	2a\	-cut
.	.	.	.	4d\	-cut	4e\)	.	.	.
=10	=10	=10	=10	=10	=10	=10	=10	=10	=10
.	.	.	.	(>2B-/	.	(2d\	Li-	2.b-\	li-
.	.	.	.	2G/)	Li-	2g\)	.	.	.
.	.	.	.	.	.	.	.	4b-\	-li-
=11	=11	=11	=11	=11-	=11	=11	=11	=11	=11
1r	.	1r	.	1d\	.	2.f\	.	2a,<\	-um
.	.	.	.	.	.	.	.	2f/	Li-
.	.	.	.	.	.	4f\	-li-	.	.
=12	=12	=12	=12	=12	=12	=12	=12	=12	=12
2r	.	2r	.	2.c/	.	1e,<\	-um	2.g/	.
1c\	et	1c\	et	.	.	.	.	.	.
*	*	*	*	*	*	*	*	*custos:a	*
.	.	.	.	4c/	-li-	.	.	4g/	-li-
=13-	=13	=13-	=13	=13-	=13	=13	=13	=13	=13
.	.	.	.	1F/	-um,	2r	.	1a,<\	-um.
2A\	flo-	2A\	flo-	.	.	1a\	et	.	.
=14	=14	=14	=14	=14	=14	=14-	=14	=14	=14
!	!	!	!	!LO:TX:a:t=6	!	!	!	!	!
1B-X\	-re-	1B-X\	-re-	00r	.	.	.	2r	.
.	.	.	.	.	.	2g\	flo-	1dd\	et
=15	=15	=15	=15	=15	=15	=15	=15	=15-	=15
1A,<	-bit	1A,<	-bit	.	.	2f\	-re-	.	.
.	.	.	.	.	.	2e,<\	-bit	2cc\	flo-
=16	=16	=16	=16	=16	=16	=16	=16	=16	=16
2B-\	in	2B-\	in	.	.	2d\	in	2b-\	-re-
2F\	ae-	2F\	ae-	.	.	2f\	ae-	2a\	-bit
=17	=17	=17	=17	=17	=17	=17	=17	=17	=17
(4c\	-ter-	4c\	-ter-	.	.	(2e\	-ter-	2g/	in
4B-\	.	(4B-\	.	.	.	.	.	.	.
4A\	.	4A\)	.	.	.	[<2a\)	.	2.cc\	ae-
4G\)	.	4G\	.	.	.	.	.	.	.
=18	=18	=18	=18	=18	=18	=18	=18	=18-	=18
!	!	!	!	!	!	!LO:N:xstem:cue:	!	!	!
1F\	.	1F\	.	0r	.	4a\]	.	.	.
.	.	.	.	.	.	4g\	.	4b-\	.
.	.	.	.	.	.	1f\	.	2a\	-ter-
=19	=19	=19	=19	=19	=19	=19-	=19	=19	=19
1C/	-num	1C,</	-num	.	.	.	.	1g\	.
.	.	.	.	.	.	4e\	.	.	.
.	.	.	.	.	.	4d\	.	.	.
=20	=20	=20	=20	=20	=20	=20	=20	=20-	=20
2r	.	2r	.	1c\	flo-	1e,<\	-num	0g,<\	-num
2c\	flo-	2c\	flo-	.	.	.	.	.	.
=21	=21	=21	=21	=21	=21	=21	=21	=21-	=21
2B-\	-re-	2B-X\	-re-	2d\	-re-	00r	.	.	.
2G\	-bit	2G\	-bit	2e\	-bit	.	.	.	.
=22	=22	=22	=22	=22	=22	=22	=22	=22	=22
2.A\	in	2.A\	in	2f\	in	.	.	0r	.
.	.	.	.	2e\	ae-	.	.	.	.
4G\	ae-	4G\	ae-	.	.	.	.	.	.
=23	=23	=23	=23	=23	=23	=23	=23	=23	=23
2F\	-ter-	2F\	-ter-	(2.a\	-ter-	.	.	.	.
2E\	.	2E\	.	.	.	.	.	.	.
.	.	.	.	4g\)	.	.	.	.	.
=24	=24	=24	=24	=24	=24	=24	=24	=24	=24
2D/	.	2D/	.	2f\	-num	.	.	2r	.
2C/	.	2C/	.	2e,<\	.	.	.	1cc\	et
=25	=25	=25	=25	=25	=25	=25	=25	=25-	=25
1G\	.	1G\	.	1.d\	in	2r	.	.	.
.	.	.	.	.	.	1g\	Jus-	2b-X\	flo-
=26	=26	=26	=26	=26-	=26	=26-	=26	=26	=26
1D,<\	-num	1D,<\	-num	.	.	.	.	2a\	-re-
.	.	.	.	2A/	ae-	2f\	-tus	2a,<\	-bit
=27	=27	=27	=27	=27	=27	=27	=27	=27	=27
00r	.	00r	.	(2c/	-ter-	2e\	ger-	1g\	si-
.	.	.	.	2G/)	.	2e\	-mi-	.	.
=28	=28	=28	=28	=28	=28	=28	=28	=28	=28
.	.	.	.	1B-/	-num	1d\	-na-	2f,</	-cut
*	*	*	*	*	*	*	*	*	*ij
.	.	.	.	.	.	.	.	2f/	si-
=29	=29	=29	=29	=29-	=29	=29	=29	=29	=29
.	.	.	.	1F,</	.	2c,</	-bit	2a,<\	-cut
*	*	*	*	*	*	*	*	*	*Xij
.	.	.	.	.	.	2c/	sic-	[<2cc\	Li-
=30	=30	=30	=30	=30	=30	=30	=30	=30	=30
!	!	!	!	!LO:TX:a:t=7	!	!	!	!	!
!	!	!	!	!	!	!	!	!LO:N:xstem:cue:	!
.	.	.	.	00r	.	2e,<\	-ut	4cc\]	.
.	.	.	.	.	.	.	.	4cc\	-li-
*	*	*	*	*	*	*custos:g	*	*	*
.	.	.	.	.	.	[<2g\	li-	2b-\	-um
=31	=31	=31	=31	=31	=31	=31	=31	=31	=31
*	*	*	*	*	*	*	*	*	*ij
!	!	!	!	!	!	!LO:TX:t=P:problem=brak zakończenia ligatury	!	!	!
!	!	!	!	!	!	!LO:N:xstem:cue:	!	!	!
1r	.	1r	.	.	.	4g\]	.	2.dd\	li-
.	.	.	.	.	.	4g\	-li-	.	.
.	.	.	.	.	.	2f,<\	-um	.	.
.	.	.	.	.	.	.	.	4dd\	-li-
=32	=32	=32	=32	=32	=32	=32	=32	=32	=32
2r	.	2r	.	.	.	2.a\	li-	2cc,<\	-um
*	*	*	*	*	*	*	*	*	*Xij
2F\	flo-	2F\	flo-	.	.	.	.	2a\	flo-
.	.	.	.	.	.	4a\	-li-	.	.
=33	=33	=33	=33	=33	=33	=33	=33	=33	=33
2A\	-re-	2A\	-re-	.	.	2a,<\	-um	2cc\	-re-
2c\	-bit	2c\	-bit	.	.	2e\	flo-	2cc\	-bit
=34	=34	=34	=34	=34	=34	=34	=34	=34	=34
2c\	in	2c\	in	0r	.	2e\	-re-	2g\	in
*custos:d	*	*custos:d	*	*	*	*	*	*	*
2B-\	ae-	2B-\	ae-	.	.	2g\	-bit	2b-\	ae-
=35	=35	=35	=35	=35	=35	=35	=35	=35	=35
2d\	-ter-	(2d\	-ter-	.	.	2f\	in	2a\	-ter-
4c\	.	4c\	.	.	.	2e\	ae-	1cc\	.
4B-\	.	4B-\)	.	.	.	.	.	.	.
=36	=36	=36	=36	=36	=36	=36	=36	=36-	=36
(2A\	.	2A\	.	1r	.	2a\	-ter-	.	.
2B-\)	.	2B-\	.	.	.	4g\	.	4b-\	.
.	.	.	.	.	.	4f\	.	4a\	.
=37	=37	=37	=37	=37	=37	=37	=37	=37	=37
1c,<\	-num	1c,<\	-num	2rA	.	2e\	.	4g/	.
.	.	.	.	.	.	.	.	4f/	.
.	.	.	.	2F/	flo-	[<2f\	.	2a\	.
=38	=38	=38	=38	=38	=38	=38	=38	=38	=38
!	!	!	!	!	!	!LO:N:xstem:cue:	!	!	!
2r	.	2r	.	2.c\	-re-	4f\]	.	1g\	-num,
.	.	.	.	.	.	8e\L	.	.	.
.	.	.	.	.	.	8d\J	.	.	.
2C/	flo-	2C/	flo-	.	.	2e\	.	.	.
.	.	.	.	4c,<\	-bit	.	.	.	.
=39	=39	=39	=39	=39	=39	=39	=39	=39	=39
2.F\	-re-	2.F\	-re-	2c\	in	1f,<\	-num	1a,<\	.
.	.	.	.	2c\	ae-	.	.	.	.
4F\	-bit	4F\	-bit	.	.	.	.	.	.
=40	=40	=40	=40	=40	=40	=40	=40	=40	=40
2F\	in	2F\	in	(2d\	-ter-	0r	.	1r	.
*	*	*	*	*custos:f	*	*	*	*	*
2G\	ae-	2G\	ae-	2e\)	.	.	.	.	.
=41	=41	=41	=41	=41	=41	=41	=41	=41	=41
2A\	-ter-	(2A\	-ter-	1.f,<\	.	.	.	2r	.
2B-\	.	2B-\)	.	.	.	.	.	2d/	flo-
=42	=42	=42	=42	=42-	=42	=42	=42	=42	=42
1c,<\	-num	1c,<\	-num	.	.	2r	.	2.g/	-re-
.	.	.	.	(4e\	.	2c/	flo-	.	.
.	.	.	.	4d,<\)	.	.	.	4g/	-bit
=43	=43	=43	=43	=43	=43	=43	=43	=43	=43
00r	.	00r	.	1e,<\	-num	2.c/	-re-	2g\	in
.	.	.	.	.	.	.	.	2a\	ae-
.	.	.	.	.	.	4c,</	-bit	.	.
=44	=44	=44	=44	=44	=44	=44	=44	=44	=44
!	!	!	!	!LO:TX:a:t=3	!	!	!	!	!
.	.	.	.	0r	.	2d\	in	2b-X\	-ter-
.	.	.	.	.	.	2e\	ae-	1cc\	.
=45	=45	=45	=45	=45	=45	=45	=45	=45-	=45
.	.	.	.	.	.	2f\	-ter-	.	.
.	.	.	.	.	.	1g\	.	2b-\	.
=46	=46	=46	=46	=46	=46	=46-	=46	=46	=46
.	.	.	.	1r	.	.	.	1a,<\	-num,
.	.	.	.	.	.	2f,<\	-num	.	.
=47	=47	=47	=47	=47	=47	=47	=47	=47	=47
2r	.	2r	.	(2.c/	flo-	0e\	an-	1.g\	an-
2C/	flo-	2C/	flo-	.	.	.	.	.	.
.	.	.	.	4d\)	.	.	.	.	.
=48	=48	=48	=48	=48	=48	=48-	=48	=48-	=48
(4C/	-re-	(4C\	-re-	(4e\	-re-	.	.	.	.
4D/	.	4D\	.	4g\)	.	.	.	.	.
4E/)	.	4E\)	.	1g\	.	.	.	2g/	-te
4F/	.	4F\	.	.	.	.	.	.	.
=49	=49	=49	=49	=49-	=49	=49	=49	=49	=49
*	*	*	*	*	*	*	*	*custos:a	*
(4G\	.	(4G\	.	.	.	2d,<\	-te	1b-\	Do-
4A\	.	4A\	.	.	.	.	.	.	.
4B-\)	.	4B-\)	.	1fn\	.	2d\	Do-	.	.
4c\	.	4c\	.	.	.	.	.	.	.
=50	=50	=50	=50	=50-	=50	=50	=50	=50	=50
2d\	-bit	2d\	-bit	.	.	2.f\	.	2.a\	.
2D/	in	2D/	in	2F,</	-bit	.	.	.	.
.	.	.	.	.	.	4e\	.	4g\	.
=51	=51	=51	=51	=51	=51	=51	=51	=51	=51
2.F\	ae-	2.F\	ae-	2.A/	in	4d\	.	1.f/	.
.	.	.	.	.	.	4c/	.	.	.
.	.	.	.	.	.	[2c/	.	.	.
*	*	*custos:d	*	*	*	*	*	*	*
4E\	.	4E\	.	4G/	ae-	.	.	.	.
=52	=52	=52	=52	=52	=52	=52	=52	=52-	=52
1D\	-ter-	1D\	-ter-	1F/	-ter-	2c/]	.	.	.
.	.	.	.	.	.	2Bn/	-mi-	2f/	-mi-
=53	=53	=53	=53	=53	=53	=53	=53	=53	=53
2C,</	-num	2C,</	-num	2G,</	-num	2c,<\	-num	2e,</	-num
1c/	an-	1C/	an-	1c\	an-	[<2e\	an-	1g\	an-
=54-	=54	=54-	=54	=54-	=54	=54	=54	=54-	=54
.	.	.	.	.	.	2e\]	.	.	.
2C/	-te	2C/	-te	2c,<\	-te	2e\	-te	2g\	-te
=55	=55	=55	=55	=55	=55	=55	=55	=55	=55
*	*ij	*	*ij	*	*	*	*ij	*	*
1.F\	an-	1.F\	an-	1.c\	an-	1.f\	an-	2.a\	Do-
.	.	.	.	.	.	.	.	4a\	-mi-
=56-	=56	=56-	=56	=56-	=56	=56-	=56	=56	=56
.	.	.	.	.	.	.	.	1a,<\	-num
2F\	-te	2F\	-te	2c,<\	-te	2f\	-te	.	.
*	*Xij	*	*Xij	*	*	*	*Xij	*	*
=57	=57	=57	=57	=57	=57	=57	=57	=57	=57
2G\	Do-	(2G\	Do-	(2B-/	Do-	2d\	Do-	2r	.
2A\	.	2A\)	.	2A/	.	2c/	.	2cc\	an-
=58	=58	=58	=58	=58	=58	=58	=58	=58	=58
2Bn\	.	2Bn\	.	2G/)	-mi-	4d\	.	(2b-X\	-te
.	.	.	.	.	.	4e\	.	.	.
1c\	.	1c\	.	2F/	-num	4f\	.	2a\)	.
.	.	.	.	.	.	4e\	.	.	.
=59-	=59	=59-	=59	=59-	=59	=59	=59	=59	=59
.	.	.	.	0G/	.	4d\	.	2.g/	D(o-
.	.	.	.	.	.	4c\	.	.	.
2B\	-mi-	2Bn\	-mi-	.	.	2d\	-mi-	.	.
.	.	.	.	.	.	.	.	4g/	-mi)-
=60	=60	=60	=60	=60-	=60	=60	=60	=60	=60
1c,<\	-num	1c,<\	-num	.	.	2e,<\	-num	2g,</	-num
.	.	.	.	.	.	2e\	Plan-	2g/	Plan-
=61	=61	=61	=61	=61	=61	=61	=61	=61	=61
!	!	!	!	!LO:TX:a:t=1	!	!	!	!	!
1r	.	1r	.	1r	.	1f\	-ta-	1a\	-ta-
=62	=62	=62	=62	=62	=62	=62	=62	=62	=62
2r	.	2r	.	2r	.	2e,<\	-t(us)	2g,</	-t(us)
*	*	*	*	*	*	*	*ij	*	*ij
2C/	Plan-	2C/	Plan-	2c\	Plan-	2e\	plan-	2g/	plan-
=63	=63	=63	=63	=63	=63	=63	=63	=63	=63
1F\	-ta-	1F\	-ta-	1c\	-ta-	1f\	-ta-	1a\	-ta-
=64	=64	=64	=64	=64	=64	=64	=64	=64	=64
2C/	-tus	2C/	-tus	2c,<\	-tus	1e,<\	-t(us)	2g,<\	-t(us)
*	*	*	*	*	*	*	*Xij	*	*Xij
2r	.	2r	.	2c\	in	.	.	2cc\	in
=65	=65	=65	=65	=65	=65	=65	=65	=65	=65
2r	.	2r	.	(2f\	Do-	2r	.	2a\	Do-
*custos:c	*	*	*	*	*	*	*	*	*
2G\	in	2G\	in	2d\)	.	2g\	in	2b-\	-mo
=66	=66	=66	=66	=66	=66	=66	=66	=66	=66
(2c\	Do-	(2c\	Do-	1c,<\	-mo,	2e\	Do-	1cc\	Do-
2A\)	.	2A\)	.	.	.	2f\	.	.	.
=67	=67	=67	=67	=67	=67	=67	=67	=67	=67
2G,<\	-mo	2G,<\	-mo	2d\	in	2g,<\	-mo	1.b-\	.
1G\	Do-	1G\	Do-	1d\	do-	1g\	Do-	.	.
=68-	=68	=68-	=68	=68-	=68	=68-	=68	=68-	=68
.	.	.	.	.	.	.	.	.	.
2F\	.	2F\	.	2d\	-mo	2g\	-mo	2b-\	-mi-
=69	=69	=69	=69	=69	=69	=69	=69	=69	=69
*	*	*	*	*	*	*	*ij	*	*
2.E-X\	.	2.E-X\	.	2e-X\	do-	2g\	Do-	2b-,<\	-ni
.	.	.	.	2e-\	-mo	4g\	-mo	2b-\	in
*	*	*	*	*	*	*	*Xij	*	*
4E-\	-mo	4E-\	-mo	.	.	4f\	.	.	.
=70	=70	=70	=70	=70	=70	=70	=70	=70	=70
!LO:SIC:v:o=2.E\	!	!	!	!	!	!	!	!	!
2.E-	Do-	2.E-X\	Do-	2.B-X/	Do-	2.e-X\	Do-	2g/	Do-
.	.	.	.	.	.	.	.	2g/	-mo
!LO:SIC:v:o=4E\	!	!	!	!	!	!	!	!	!
4E-	-mi-	4E-\	-mi-	4B-/	-mi-	4e-\	-mi-	.	.
=71	=71	=71	=71	=71	=71	=71	=71	=71	=71
2BB-,</	-ni	2BB-,</	-ni	2B-,</	-ni	2d,<\	-ni	2f/	Do-
2B-\	in	2B-\	in	2B-/	in	2d\	in	2f/	-mi-
=72	=72	=72	=72	=72	=72	=72	=72	=72	=72
2G\	Do-	(2G\	Do-	2d\	do-	2g\	Do-	2b-,<\	-ni
2F\	.	2F\)	.	2d\	-mo	2g\	-mo	2b-\	in
=73	=73	=73	=73	=73	=73	=73	=73	=73	=73
2E-X\	.	2E-X\	.	2e-X\	Do-	2g\	Do-	2b-\	Do-
2E-\	-mo	2E-\	-mo	2e-\	-mi-	2g\	-mo	2b-\	-mo
=74	=74	=74	=74	=74	=74	=74	=74	=74	=74
!LO:SIC:v:o=2.E\	!	!LO:SIC:v:o=2.E\	!	!	!	!	!	!	!
2.E-	Do-	2.E-	Do-	1B-/,	-ni	2.e-X\	Do-	2.g/	Do-
!LO:SIC:v:o=4E\	!	!LO:SIC:v:o=4E\	!	!	!	!	!	!	!
4E-	-mi-	4E-	-mi-	.	.	4e-\	-mi-	4g/	-mi-
=75	=75	=75	=75	=75	=75	=75	=75	=75	=75
2BB-,</	-ni	2BB-,</	-ni	2B-/	in	2d,<\	-ni	2f,</	-ni
1B-\	in	1B-\	in	1d\	a-	2d\	in	2f/	in
=76-	=76	=76-	=76	=76-	=76	=76	=76	=76	=76
.	.	.	.	.	.	2B-/	a-	2g\	a-
*	*	*	*	*custos:b	*	*	*	*	*
2A\	.	2A\	.	2c\	-tri-	2c/	-trÿs	2a\	-trÿs
=77	=77	=77	=77	=77	=77	=77	=77	=77	=77
!	!	!	!	!	!	!LO:TX:t=P:problem=tekst podłożony według rozdzielaczy słów	!	!LO:TX:t=P:problem=tekst podłożony według rozdzielaczy słów	!
2G\	a-	2G\	a-	2B-X,</	-is	2d,<\	.	2b-,<\	.
2G\	.	2G\	.	2B-/	do-	2e\	Do-	2b-\	do-
=78	=78	=78	=78	=78	=78	=78	=78	=78	=78
2F\	-trys	2F,<\	-trys	2c\	-mûs	2f\	-mûs	2a,<\	-m(us)
1F\	Do-	1F\	Do-	2c\	De-	4e-X\	De-	4cc\	De-
.	.	.	.	.	.	4d\	.	4b-\	.
=79-	=79	=79-	=79	=79	=79	=79	=79	=79	=79
.	.	.	.	(4f\	.	2c/	-i	4a\	.
.	.	.	.	4e\	.	.	.	4g\	.
2F\	-mûs	2F\	-m(us)	4d\)	.	1d\	no-	4f/	.
.	.	.	.	4c\	.	.	.	4e/	.
=80	=80	=80	=80	=80	=80	=80-	=80	=80	=80
2G\	De-	2G\	De-	2B-/	.	.	.	2d,</	-i
2C/	-i	2C,</	-i	2c,</	-i	2e-X\	.	1g\	no-
=81	=81	=81	=81	=81	=81	=81	=81	=81-	=81
*custos:GG	*	*	*	*	*	*	*	*	*
1D\	no-	1D,<\	no-	1A/	nos-	0.d,<	-stri	.	.
.	.	.	.	.	.	.	.	2f#X/	.
=82	=82	=82	=82	=82	=82	=82	=82	=82	=82
2GG,</	-stri	2GG,</	-stri	1B-X/	-tri.	.	.	0g,<	-ſtri
1G\	Et	1G\	et	.	.	.	.	.	.
=83-	=83	=83-	=83	=83	=83	=83	=83	=83-	=83
.	.	.	.	2r	.	.	.	.	.
2A\	flo-	2A\	flo-	1d\	Et	.	.	.	.
=84	=84	=84	=84	=84-	=84	=84	=84	=84	=84
1B-\	-re-	1B-\	-re-	.	.	0r	.	00r	.
.	.	.	.	2d\	flo-	.	.	.	.
=85	=85	=85	=85	=85	=85	=85	=85	=85	=85
2A,<\	-bit	2A,<\	-bit	1f\	-re-	.	.	.	.
*	*ij	*	*	*	*	*	*	*	*
2B-\	flo-	2B-\	flo-	.	.	.	.	.	.
=86	=86	=86	=86	=86	=86	=86	=86	=86	=86
(2c\	-re-	(2c\	-re-	(2en\	-bit	1r	.	.	.
2A\)	.	2A\)	.	2f\)	.	.	.	.	.
=87	=87	=87	=87	=87	=87	=87	=87	=87	=87
1G,<\	-bit	1G,<\	-bit,	2g\	in	2r	.	.	.
*	*Xij	*	*	*	*	*	*	*	*
.	.	.	.	2g\	ae-	1d\	et	.	.
=88	=88	=88	=88	=88	=88	=88-	=88	=88	=88
[<1D\	et	[<1D\	et	(2.f\	-ter-	.	.	1.a\	et
.	.	.	.	.	.	2d\	flo-	.	.
.	.	.	.	4e\)	.	.	.	.	.
=89	=89	=89	=89	=89	=89	=89	=89	=89-	=89
!LO:N:xstem:cue:vis=4	!	!LO:N:xstem:cue:vis=4	!	!	!	!	!	!	!
2D/]	.	2D/]	.	1d,<\	-num	2f\	-re-	.	.
2D/	flo-	2D/	flo-	.	.	2f\	-bit	2b-\	flo-
=90	=90	=90	=90	=90	=90	=90	=90	=90	=90
!	!	!	!	!LO:TX:a:t=2	!	!	!	!	!
*	*	*	*	*	*	*	*ij	*	*
2A\	-re-	2A\	-re-	0r	.	2en\	flo-	2cc\	-re-
2A\	-bit	2A\	-bit	.	.	2f\	-re-	2cc\	-bit
=91	=91	=91	=91	=91	=91	=91	=91	=91	=91
2G\	in	2G\	in	.	.	(2g\	-bit	2b-\	in
*	*	*	*	*	*	*	*Xij	*	*
2A\	ae-	2A\	ae-	.	.	2e\)	.	2cc\	ae-
=92	=92	=92	=92	=92	=92	=92	=92	=92	=92
(2B-\	-ter-	(2B-\	-ter-	2r	.	1d,<\	in	(2dd\	-ter-
2G\)	.	2G\)	.	1d\	in	.	.	2b-\)	.
=93	=93	=93	=93	=93-	=93	=93	=93	=93	=93
1F\	-num	1F\	-num	.	.	2r	.	1a,<\	-num
.	.	.	.	2c\	ae-	1a\	ae-	.	.
=94	=94	=94	=94	=94	=94	=94-	=94	=94	=94
0r	.	0r	.	2d\	-ter-	.	.	00r	.
*	*	*	*	*custos:f	*	*	*	*	*
.	.	.	.	2en\	.	2g\	.	.	.
=95	=95	=95	=95	=95	=95	=95	=95	=95	=95
.	.	.	.	2.f\	-num	2a\	-ter-	.	.
.	.	.	.	.	.	2d,</	-num	.	.
.	.	.	.	4e\	.	.	.	.	.
=96	=96	=96	=96	=96	=96	=96	=96	=96	=96
2r	.	2r	.	2d\	an-	2f\	an-	.	.
1A\	an-	1A\	an-	2c/	-te	2.e\	.	.	.
=97-	=97	=97-	=97	=97	=97	=97-	=97	=97	=97
.	.	.	.	2.f\	D(o-	.	.	.	.
.	.	.	.	.	.	4e\	-te	.	.
2F\	-te	2F\	-te	.	.	1d\	D(o-	.	.
.	.	.	.	4f\	-mi)-	.	.	.	.
=98	=98	=98	=98	=98	=98	=98-	=98	=98	=98
2G\	Do-	2G\	Do-	1e,<\	-num	.	.	2r	.
*	*	*custos:b	*	*	*	*	*	*	*
2A\	.	2A\	.	.	.	2c#X/	-mi)-	2a\	flo-
=99	=99	=99	=99	=99	=99	=99	=99	=99	=99
1B-\	.	1B-\	.	2r	.	1d,<\	-num	2f/	-re-
.	.	.	.	2d\	flo-	.	.	2g/	-bit
=100	=100	=100	=100	=100	=100	=100	=100	=100	=100
2A\	.	2A\	.	2c/	-re-	00r	.	2a\	an-
1G\	.	1G\	.	2d/	-bit	.	.	1b-\	.
=101-	=101	=101-	=101	=101	=101	=101	=101	=101-	=101
.	.	.	.	2e\	an-	.	.	.	.
2F\	.	2F\	.	2f\	-te	.	.	2a\	-te
=102	=102	=102	=102	=102	=102	=102	=102	=102	=102
2.G\	.	2.G\	.	2e\	Do-	.	.	2g/	Do-
.	.	.	.	1d\	.	.	.	2f/	.
4G\	-mi-	4G\	-mi-	.	.	.	.	.	.
=103-	=103	=103-	=103	=103-	=103	=103	=103	=103	=103
1A\	-num	1A,<\	-num	.	.	.	.	2.e/	.
.	.	.	.	2c#X/	-mi-	.	.	.	.
*	*	*	*	*	*	*	*	*custos:d	*
.	.	.	.	.	.	.	.	4e/	-mi-
=104	=104	=104	=104	=104	=104	=104	=104	=104	=104
2r	.	2r	.	1d,<\	-num	2r	.	2d,</	-num,
1D\	et	1D\	et	.	.	1f#X\	et	1a\	et
=105-	=105	=105-	=105	=105	=105	=105-	=105	=105-	=105
.	.	.	.	(<2A/	et	.	.	.	.
2D/	flo-	2D/	flo-	1d\)	.	2f#y\	flo-	2a\	flo-
=106	=106	=106	=106	=106-	=106	=106	=106	=106	=106
1G\	-re-	1G\	-re-	.	.	1g\	-re-	1bn\	-re-
.	.	.	.	2d\	flo-	.	.	.	.
=107	=107	=107	=107	=107	=107	=107	=107	=107	=107
1C,</	-bit	1C,</	-bit	2e\	-re-	1g,<\	-bit	1cc,<\	-bit
.	.	.	.	2e\	-bit	.	.	.	.
=108-	=108	=108-	=108	=108	=108	=108	=108	=108	=108
*	*ij	*	*ij	*	*	*	*ij	*	*
2BB-/	et	2BB-/	et	2f\	et	2b-\	et	2dd\	et
2B-\	flo-	2B-\	flo-	2f\	flo-	2b-\	flo-	2dd\	flo-
=109	=109	=109	=109	=109	=109	=109	=109	=109	=109
2B-\	-re-	2B-\	-re-	2f\	-re-	2b-\	-re-	2dd\	-re-
2BB-,</	-bit	2BB-,</	-bit	2f\	-bit	2b-\	-bit	2dd\	-bit
*	*Xij	*	*Xij	*	*	*	*Xij	*	*
=110	=110	=110	=110	=110	=110	=110	=110	=110	=110
1.F\	in	1.F\	in	2.f\	an-	2a\	an-	1.cc\	in
.	.	.	.	.	.	[<2a\	-te	.	.
*	*	*	*	*custos:d	*	*	*	*	*
.	.	.	.	4e\	-te	.	.	.	.
=111-	=111	=111-	=111	=111	=111	=111	=111	=111-	=111
.	.	.	.	1d\	Do-	2a\]	.	.	.
2G\	ae-	2G\	ae-	.	.	2.g\	Do-	2b-\	ae-
=112	=112	=112	=112	=112	=112	=112-	=112	=112	=112
2A\	-ter-	2A\	-ter-	2c/	.	.	.	2a\	-ter-
.	.	.	.	.	.	4g\	.	.	.
2B-\	.	2B-\	.	2d/	.	1fn\	.	2f/	.
=113	=113	=113	=113	=113	=113	=113-	=113	=113-	=113
1G\	.	1G\	.	2.B-/	.	.	.	1g\	-num
.	.	.	.	.	.	2e\	-mi-	.	.
.	.	.	.	4B-/	-mi-	.	.	.	.
=114	=114	=114	=114	=114	=114	=114	=114	=114	=114
1F,<\	-num	1F,<\	-num	1c,<\	-num	2f,<\	-num	2a\	an-
.	.	.	.	.	.	2f\	flo-	2a\	-te
=115	=115	=115	=115	=115	=115	=115	=115	=115	=115
*	*	*custos:f	*	*	*	*	*	*	*
1r	.	1r	.	1r	.	4B-X/	-re-	1dd\	Do-
.	.	.	.	.	.	(4c/	.	.	.
.	.	.	.	.	.	4d/)	.	.	.
.	.	.	.	.	.	4e/	.	.	.
=116	=116	=116	=116	=116	=116	=116	=116	=116	=116
2F\	an-	2F\	an-	2A/	et	2f,<\	-bit	2cc\	.
*	*	*	*	*	*	*custos:f	*	*	*
2D/	-te	2D/	-te	2d\	flo-	2f\	flo-	2b-\	-mi-
=117	=117	=117	=117	=117	=117	=117	=117	=117-	=117
4BB-/	Do-	4BB-/	Do-	1d\	-re-	2f,<\	-bit	2b-,<\	-num
(4C/	.	(4C/	.	.	.	.	.	.	.
4D/)	.	4D/	.	.	.	1f\	an-	1b-\	an-
4E/	.	4E/)	.	.	.	.	.	.	.
=118	=118	=118	=118	=118-	=118	=118-	=118	=118-	=118
2.F\	.	2.F\	.	2c/	.	.	.	.	.
.	.	.	.	2c,</	-bit	2f\	-te	2a\	.
4F\	-mi-	4F\	-mi-	.	.	.	.	.	.
=119	=119	=119	=119	=119	=119	=119	=119	=119	=119
2G,<\	-num	2G,<\	-num	2B-/	an-	1d\	Do-	2g/	-te
2D/	an-	2D/	an-	2A/	-te	.	.	2f/	.
=120	=120	=120	=120	=120	=120	=120	=120	=120	=120
(2E\	-te	2E\	-te	2G/	Do-	1c\	.	2g\	Do-
2F\)	.	2F\	.	2F/	.	.	.	(2.a\	.
=121	=121	=121	=121	=121	=121	=121	=121	=121-	=121
2D\	Do-	2D\	Do-	1A/	.	2d\	.	.	.
.	.	.	.	.	.	.	.	4g/)	.
2F\	.	2F\	.	.	.	2c/	-mi-	1f/	.
=122	=122	=122	=122	=122	=122	=122	=122	=122-	=122
0C/	.	0C/	.	0G/	.	0c,<\	-num	.	.
.	.	.	.	.	.	.	.	4e/	.
.	.	.	.	.	.	.	.	4d/	.
=123-	=123	=123-	=123	=123-	=123	=123-	=123	=123-	=123
.	.	.	.	.	.	.	.	1e/	.
=124-	=124	=124-	=124	=124	=124	=124	=124	=124	=124
1D\	.	1D\	.	1F/	.	1A/	Do-	1f/	.
=125	=125	=125	=125	=125	=125	=125	=125	=125	=125
1.BB-/	.	1.BB-/	.	1.B-X/	.	[<1d\	.	1.f/	.
=126-	=126	=126-	=126	=126-	=126	=126	=126	=126-	=126
!	!	!	!	!	!	!LO:N:xstem:cue:vis=4	!	!	!
.	.	.	.	.	.	2d\]	.	.	.
2BB-/	-mi-	2BB-/	-mi-	2B-/	-mi-	2d\	-mi-	2f/	-mi-
=127-	=127	=127-	=127	=127	=127	=127	=127	=127	=127
!LO:N:vis=0	!	!LO:N:vis=0	!	!LO:N:vis=0	!	!LO:N:vis=0	!	!LO:N:vis=0	!
1F\;	-num.	1F\;	-num.	1A/;	-num.	1c\;	-num	1f/;	-num
==	==	==	==	==	==	==	==	==	==
*-	*-	*-	*-	*-	*-	*-	*-	*-	*-
!!!RDF**kern: > = above
!!!RDF**kern: < = below
!!!system-decoration: [(s1,s2,s3,s4,s5)]
!!!EED: Andrzej Borzym
!!!EEV: 2021-02-23
!!!ENC: Mateusz Solarz
!!!END: 2021-02-15
